shader_type canvas_item;

void vertex() {
	// Called for every vertex the material is visible on.
}

void fragment() {
	vec2 grid_uv=round(UV*float(16.0))/float(16.0);
	vec4 txtr=texture(TEXTURE, grid_uv);
	COLOR=txtr;
	// Called for every pixel the material is visible on.
}

//void light() {
	// Called for every pixel for every light affecting the CanvasItem.
	// Uncomment to replace the default light processing function with this one.
//}
